;FLAVOR:Marlin
;TIME:11329
;Filament used: 16.9723m
;Layer height: 0.2
;MINX:34.424
;MINY:68.932
;MINZ:0.3
;MAXX:185.576
;MAXY:150.956
;MAXZ:20.3
;Generated with Creality Slicer 4.8.2-177
M140 S70
M105
M190 S70
M104 S210
M105
M109 S210
M82 ;absolute extrusion mode
M201 X500.00 Y500.00 Z100.00 E5000.00 ;Setup machine max acceleration
M203 X500.00 Y500.00 Z10.00 E50.00 ;Setup machine max feedrate
M204 P500.00 R1000.00 T500.00 ;Setup Print/Retract/Travel acceleration
M205 X8.00 Y8.00 Z0.40 E5.00 ;Setup Jerk
M220 S100 ;Reset Feedrate
M221 S100 ;Reset Flowrate

G28 ;Home

G92 E0 ;Reset Extruder
G1 Z2.0 F3000 ;Move Z Axis up
G1 X10.1 Y20 Z0.28 F5000.0 ;Move to start position
G1 X10.1 Y200.0 Z0.28 F1500.0 E15 ;Draw the first line
G1 X10.4 Y200.0 Z0.28 F5000.0 ;Move to side a little
G1 X10.4 Y20 Z0.28 F1500.0 E30 ;Draw the second line
G92 E0 ;Reset Extruder
G1 Z2.0 F3000 ;Move Z Axis up

G92 E0
G92 E0
G1 F3600 E-8
;LAYER_COUNT:101
;LAYER:0
M107
;MESH:chassis.stl
G0 F6000 X49.547 Y139.937 Z0.3
;TYPE:WALL-INNER
G1 F3600 E0
G1 F1200 X50.216 Y139.065 E0.10967
G1 X50.638 Y138.049 E0.21944
G1 X50.78 Y136.959 E0.32912
G1 X50.638 Y135.87 E0.4387
G1 X50.216 Y134.853 E0.54857
G1 X49.547 Y133.982 E0.65815
G1 X48.676 Y133.313 E0.76774
G1 X47.66 Y132.893 E0.87744
G1 X46.57 Y132.748 E0.98715
G1 X45.481 Y132.893 E1.09677
G1 X44.464 Y133.313 E1.20656
G1 X43.593 Y133.982 E1.31615
G1 X42.924 Y134.853 E1.42574
G1 X42.726 Y135.332 E1.47745
G1 X42.502 Y135.87 E1.5356
G1 X42.36 Y136.959 E1.64518
G1 X42.408 Y137.334 E1.68291
G1 X42.502 Y138.049 E1.75486
G1 X42.924 Y139.065 E1.86464
G1 X43.593 Y139.937 E1.9743
G1 X43.987 Y140.24 E2.0239
G1 X44.464 Y140.605 E2.08383
G1 X45.406 Y140.996 E2.1856
G1 X44.464 Y140.996 E2.20709
G1 X43.863 Y140.996 E2.25256
G1 X40.159 Y140.996 E2.62214
G1 X39.541 Y140.915 E2.68434
G1 X39.108 Y140.857 E2.72793
G1 X38.753 Y140.71 E2.76627
G1 X39.108 Y140.71 E2.76885
G1 X39.568 Y140.71 E2.78
G1 X39.591 Y140.669
G1 X41.701 Y137.016 E3.20093
G1 X41.89 Y136.688 E3.23294
G1 X42.397 Y135.81 E3.27353
G1 X42.683 Y135.315 E3.27901
G1 X42.544 Y135.073 E3.28173
G1 X42.221 Y134.515 E3.3406
G1 X36.688 Y134.515 E3.89268
G1 X36.289 Y134.515 E3.9325
G1 X36.289 Y134.116 E3.95824
G1 X36.29 Y86.536 E8.70579
G1 X36.29 Y86.535 E8.70589
G1 X36.29 Y85.046 E8.85446
G1 X37.035 Y86.336 E8.9313
G1 X38.382 Y88.669 E9.20011
G1 X39.768 Y88.669 E9.3384
G1 X42.883 Y83.274 E9.96001
G1 X42.421 Y82.474 E10.05218
G1 X36.538 Y82.474 E10.63919
G1 X36.428 Y82.474 E10.65017
G1 X36.342 Y82.474 E10.65875
G1 X36.428 Y81.823 E10.70435
G1 X36.47 Y81.722 E10.71442
G1 X36.808 Y80.907 E10.80246
G1 X37.407 Y80.126 E10.90067
G1 X38.195 Y79.521 E10.9998
G1 X39.108 Y79.143 E11.0984
G1 X40.17 Y79.003 E11.20528
G1 X130.361 Y79.002 E20.20458
G1 X131.708 Y78.846 E20.33988
G1 X133.057 Y78.356 E20.48309
G1 X134.259 Y77.571 E20.62633
G1 X135.247 Y76.531 E20.76947
G1 X135.971 Y75.29 E20.91283
G1 X136.648 Y73.075 E21.14393
G1 X137.087 Y72.321 E21.23099
G1 X137.69 Y71.686 E21.31837
G1 X138.426 Y71.205 E21.4061
G1 X139.249 Y70.906 E21.49347
G1 X140.189 Y70.797 E21.58789
G1 X179.842 Y70.798 E25.54448
G1 X180.891 Y70.936 E25.65005
G1 X181.805 Y71.315 E25.74878
G1 X182.593 Y71.92 E25.84791
G1 X183.192 Y72.701 E25.94612
G1 X183.572 Y73.617 E26.04507
G1 X183.711 Y74.677 E26.15175
G1 X183.71 Y145.334 E33.20193
G1 X183.572 Y146.383 E33.3075
G1 X183.192 Y147.299 E33.40645
G1 X182.593 Y148.08 E33.50466
G1 X181.805 Y148.685 E33.60379
G1 X180.891 Y149.064 E33.70252
G1 X179.831 Y149.203 E33.80919
G1 X140.342 Y149.202 E37.74942
G1 X139.411 Y149.094 E37.84294
G1 X138.588 Y148.795 E37.93031
G1 X137.852 Y148.314 E38.01804
G1 X137.252 Y147.682 E38.10499
G1 X136.808 Y146.922 E38.19282
G1 X136.133 Y144.71 E38.42358
G1 X135.409 Y143.469 E38.56694
G1 X134.421 Y142.43 E38.71
G1 X133.22 Y141.644 E38.85322
G1 X133.129 Y141.611 E38.86288
G1 X131.904 Y141.167 E38.99289
G1 X131.87 Y141.154 E38.99652
G1 X131.206 Y141.078 E39.06321
G1 X130.513 Y140.997 E39.13283
G1 X106.307 Y140.997 E41.54811
G1 X105.66 Y140.997 E41.61267
G1 X104.57 Y140.997 E41.72143
G1 X103.481 Y140.997 E41.83009
G1 X102.834 Y140.997 E41.89465
G1 X49.275 Y140.997 E47.23879
G1 X48.676 Y140.997 E47.29856
G1 X47.734 Y140.996 E47.39255
G1 X48.676 Y140.605 E47.42185
G1 X49.151 Y140.241 E47.46714
G1 X49.547 Y139.937 E47.51696
G0 F6000 X48.976 Y139.366
;TYPE:WALL-OUTER
G1 F1200 X49.517 Y138.661 E47.60563
G1 X49.858 Y137.84 E47.69433
G1 X49.973 Y136.959 E47.78298
G1 X49.858 Y136.079 E47.87154
G1 X49.517 Y135.257 E47.96033
G1 X48.976 Y134.553 E48.04892
G1 X48.272 Y134.012 E48.13752
G1 X47.451 Y133.672 E48.22618
G1 X46.57 Y133.555 E48.31486
G1 X45.69 Y133.672 E48.40344
G1 X44.868 Y134.012 E48.4922
G1 X44.164 Y134.553 E48.58079
G1 X43.623 Y135.257 E48.66938
G1 X43.282 Y136.079 E48.75818
G1 X43.167 Y136.959 E48.84673
G1 X43.282 Y137.84 E48.93538
G1 X43.623 Y138.661 E49.02409
G1 X44.164 Y139.366 E49.11276
G1 X44.868 Y139.906 E49.20129
G1 X45.69 Y140.247 E49.29009
G1 X46.57 Y140.362 E49.37864
G1 X47.451 Y140.247 E49.46729
G1 X48.272 Y139.906 E49.556
G1 X48.976 Y139.366 E49.64453
G0 F6000 X49.598 Y139.988
G0 X47.513 Y140.48
G0 X46.57 Y140.604
G0 X45.628 Y140.48
G0 X44.748 Y140.115
G0 X42.14 Y138.146
G0 X42.002 Y137.288
G0 X39.24 Y140.144
G0 X38.51 Y140.144
G0 X36.646 Y138.05
;TYPE:WALL-INNER
G1 F1200 X37.138 Y138.902 E49.7427
G1 X37.626 Y139.747 E49.84006
G1 X37.932 Y140.277 E49.90113
G1 X37.407 Y139.874 E49.91465
G1 X36.808 Y139.093 E49.95401
G1 X36.428 Y138.177 E49.99492
G1 X36.342 Y137.524 E50.06064
G1 X36.646 Y138.05 E50.06907
G1 F3600 E42.06907
G0 F6000 X38.51 Y140.144
G0 X39.24 Y140.144
G0 X42.03 Y135.315
G0 X41.759 Y135.315
;TYPE:WALL-OUTER
G1 F3600 E50.06907
G1 F1200 X35.991 Y135.315 E50.6446
G1 X38.644 Y139.91 E51.17402
G1 X39.106 Y139.91 E51.22012
G1 X41.759 Y135.315 E51.74954
G0 F6000 X42.521 Y134.875
G1 F3600 E43.74954
G0 F6000 X36.671 Y134.133
G0 X36.69 Y86.538
G0 X39.068 Y88.563
G0 X39.564 Y88.019
G0 X39.306 Y87.869
G1 F3600 E51.74954
G1 F1200 X41.959 Y83.274 E52.27897
G1 X36.191 Y83.274 E52.8545
G1 X38.844 Y87.869 E53.38392
G1 X39.306 Y87.869 E53.43002
G1 F3600 E45.43002
G0 F6000 X39.564 Y88.02
G0 X41.309 Y86.78
G0 X41.967 Y87.389
G0 X43.993 Y89.966
G0 X44.748 Y90.545
G0 X45.628 Y90.909
G0 X46.39 Y91.01
G0 X48.676 Y91.035
;TYPE:WALL-INNER
G1 F3600 E53.43002
G1 F1200 X49.547 Y90.366 E53.53961
G1 X50.216 Y89.495 E53.6492
G1 X50.638 Y88.478 E53.75906
G1 X50.78 Y87.389 E53.86864
G1 X50.638 Y86.299 E53.97832
G1 X50.216 Y85.283 E54.0881
G1 X49.547 Y84.411 E54.19776
G1 X48.676 Y83.743 E54.30729
G1 X47.66 Y83.321 E54.41706
G1 X46.57 Y83.179 E54.52674
G1 X45.481 Y83.321 E54.63632
G1 X44.464 Y83.743 E54.74619
G1 X43.593 Y84.411 E54.85571
G1 X42.924 Y85.283 E54.96538
G1 X42.502 Y86.299 E55.07515
G1 X42.36 Y87.389 E55.18483
G1 X42.502 Y88.478 E55.29441
G1 X42.924 Y89.495 E55.40428
G1 X43.593 Y90.366 E55.51386
G1 X44.464 Y91.035 E55.62345
G1 X45.481 Y91.455 E55.73324
G1 X46.57 Y91.6 E55.84286
G1 X47.66 Y91.455 E55.95258
G1 X48.676 Y91.035 E56.06228
G0 F6000 X48.272 Y90.336
;TYPE:WALL-OUTER
G1 F1200 X48.976 Y89.795 E56.15087
G1 X49.517 Y89.091 E56.23946
G1 X49.858 Y88.269 E56.32825
G1 X49.973 Y87.389 E56.41681
G1 X49.858 Y86.508 E56.50546
G1 X49.517 Y85.687 E56.59416
G1 X48.976 Y84.982 E56.68284
G1 X48.272 Y84.442 E56.77137
G1 X47.451 Y84.101 E56.86007
G1 X46.57 Y83.986 E56.94872
G1 X45.69 Y84.101 E57.03728
G1 X44.868 Y84.442 E57.12607
G1 X44.164 Y84.982 E57.2146
G1 X43.623 Y85.687 E57.30327
G1 X43.282 Y86.508 E57.39198
G1 X43.167 Y87.389 E57.48063
G1 X43.282 Y88.269 E57.56918
G1 X43.623 Y89.091 E57.65798
G1 X44.164 Y89.795 E57.74657
G1 X44.868 Y90.336 E57.83516
G1 X45.69 Y90.676 E57.92392
G1 X46.57 Y90.793 E58.0125
G1 X47.451 Y90.676 E58.10118
G1 X48.272 Y90.336 E58.18985
G0 F6000 X48.712 Y91.097
G1 F3600 E50.18985
G0 F6000 X51.019 Y88.58
G0 X48.82 Y87.995
G0 X102.923 Y89.036
G0 X101.315 Y90.644
G0 X104.57 Y91.6
;TYPE:WALL-INNER
G1 F3600 E58.18985
G1 F1200 X105.66 Y91.455 E58.29957
G1 X106.676 Y91.035 E58.40926
G1 X107.547 Y90.366 E58.51885
G1 X108.216 Y89.495 E58.62843
G1 X108.638 Y88.478 E58.7383
G1 X108.78 Y87.389 E58.84788
G1 X108.638 Y86.299 E58.95756
G1 X108.216 Y85.283 E59.06734
G1 X107.547 Y84.411 E59.177
G1 X106.676 Y83.743 E59.28653
G1 X105.66 Y83.321 E59.3963
G1 X104.57 Y83.179 E59.50598
G1 X103.481 Y83.321 E59.61556
G1 X102.464 Y83.743 E59.72543
G1 X101.593 Y84.411 E59.83495
G1 X100.924 Y85.283 E59.94462
G1 X100.502 Y86.299 E60.05439
G1 X100.36 Y87.389 E60.16407
G1 X100.502 Y88.478 E60.27365
G1 X100.924 Y89.495 E60.38352
G1 X101.593 Y90.366 E60.4931
G1 X102.464 Y91.035 E60.60269
G1 X103.481 Y91.455 E60.71248
G1 X104.57 Y91.6 E60.8221
G0 F6000 X104.57 Y90.793
;TYPE:WALL-OUTER
G1 F1200 X105.451 Y90.676 E60.91078
G1 X106.272 Y90.336 E60.99944
G1 X106.976 Y89.795 E61.08803
G1 X107.517 Y89.091 E61.17663
G1 X107.858 Y88.269 E61.26542
G1 X107.973 Y87.389 E61.35398
G1 X107.858 Y86.508 E61.44263
G1 X107.517 Y85.687 E61.53133
G1 X106.976 Y84.982 E61.62
G1 X106.272 Y84.442 E61.70853
G1 X105.451 Y84.101 E61.79724
G1 X104.57 Y83.986 E61.88589
G1 X103.69 Y84.101 E61.97444
G1 X102.868 Y84.442 E62.06324
G1 X102.164 Y84.982 E62.15177
G1 X101.623 Y85.687 E62.24044
G1 X101.282 Y86.508 E62.32915
G1 X101.167 Y87.389 E62.4178
G1 X101.282 Y88.269 E62.50635
G1 X101.623 Y89.091 E62.59515
G1 X102.164 Y89.795 E62.68374
G1 X102.868 Y90.336 E62.77233
G1 X103.69 Y90.676 E62.86109
G1 X104.57 Y90.793 E62.94967
G0 F6000 X104.57 Y91.673
G1 F3600 E54.94967
G0 F6000 X106.046 Y90.76
G0 X109.019 Y88.58
G0 X106.82 Y87.995
G0 X132.975 Y84.053
G0 X134.912 Y85.17
G0 X132.218 Y87.897
;TYPE:WALL-INNER
G1 F3600 E62.94967
G1 F1200 X132.563 Y88.495 E63.01856
G1 X132.908 Y87.897 E63.05759
G1 X136.141 Y82.3 E63.70254
G1 X135.448 Y81.1 E63.84081
G1 X129.217 Y81.1 E64.46254
G1 X128.755 Y81.9 E64.55472
G1 X132.218 Y87.897 E65.2457
G0 F6000 X132.822 Y87.046
G0 X132.563 Y86.895
;TYPE:WALL-OUTER
G1 F1200 X135.217 Y82.3 E65.77517
G1 X134.986 Y81.9 E65.82126
G1 X129.679 Y81.9 E66.3508
G1 X132.563 Y86.895 E66.92631
G1 F3600 E58.92631
G0 F6000 X132.821 Y87.047
G0 X134.912 Y85.17
G0 X132.975 Y84.053
G0 X145.995 Y110.828
G0 X144.386 Y109.221
G0 X144.291 Y111.768
G0 X144.381 Y112.452
G0 X144.619 Y113.025
G0 X146.105 Y114.869
;TYPE:WALL-INNER
G1 F3600 E66.92631
G1 F1200 X146.858 Y114.968 E67.00209
G1 X176.753 Y114.968 E69.98503
G1 X177.506 Y114.869 E70.06081
G1 X178.281 Y114.548 E70.14451
G1 X178.945 Y114.039 E70.22799
G1 X179.455 Y113.374 E70.31161
G1 X179.777 Y112.599 E70.39535
G1 X179.885 Y111.768 E70.47897
G1 X179.777 Y110.938 E70.56248
G1 X179.455 Y110.162 E70.64631
G1 X178.945 Y109.499 E70.72978
G1 X178.281 Y108.987 E70.81344
G1 X177.506 Y108.668 E70.89706
G1 X176.755 Y108.568 E70.97266
G1 X146.856 Y108.568 E73.95599
G1 X146.105 Y108.668 E74.03159
G1 X145.332 Y108.987 E74.11503
G1 X144.665 Y109.499 E74.19893
G1 X144.156 Y110.163 E74.28241
G1 X143.834 Y110.938 E74.36615
G1 X143.726 Y111.768 E74.44967
G1 X143.834 Y112.599 E74.53328
G1 X144.156 Y113.372 E74.61684
G1 X144.665 Y114.039 E74.70055
G1 X145.332 Y114.548 E74.78427
G1 X146.105 Y114.869 E74.86779
G0 F6000 X146.314 Y114.09
;TYPE:WALL-OUTER
G1 F1200 X146.91 Y114.168 E74.92777
G1 X176.701 Y114.168 E77.90032
G1 X177.297 Y114.09 E77.9603
G1 X177.877 Y113.849 E78.02297
G1 X178.374 Y113.468 E78.08546
G1 X178.756 Y112.97 E78.14808
G1 X178.997 Y112.39 E78.21075
G1 X179.078 Y111.768 E78.27334
G1 X178.997 Y111.147 E78.33583
G1 X178.756 Y110.566 E78.39859
G1 X178.374 Y110.069 E78.46114
G1 X177.877 Y109.686 E78.52374
G1 X177.297 Y109.447 E78.58634
G1 X176.702 Y109.368 E78.64623
G1 X146.909 Y109.368 E81.61899
G1 X146.314 Y109.447 E81.67888
G1 X145.735 Y109.686 E81.74138
G1 X145.236 Y110.069 E81.80414
G1 X144.855 Y110.566 E81.86663
G1 X144.614 Y111.147 E81.92939
G1 X144.533 Y111.768 E81.99188
G1 X144.614 Y112.39 E82.05447
G1 X144.855 Y112.969 E82.11704
G1 X145.236 Y113.468 E82.17969
G1 X145.735 Y113.849 E82.24233
G1 X146.314 Y114.09 E82.30491
G0 F6000 X146.086 Y114.939
G1 F3600 E74.30491
G0 F6000 X145.135 Y114.889
G0 X146.27 Y112.92
G0 X132.392 Y136.722
G0 X132.392 Y134.487
G0 X129.62 Y135.423
G0 X131.611 Y140.473
;TYPE:WALL-INNER
G1 F3600 E82.30491
G1 F1200 X131.945 Y141.052 E82.34652
G1 X133.22 Y141.052 E82.40161
G1 X133.331 Y141.052 E82.40995
G1 X136.446 Y135.657 E83.03155
G1 X135.984 Y134.857 E83.12373
G1 X129.292 Y134.857 E83.79146
G1 X128.83 Y135.657 E83.88364
G1 X131.611 Y140.473 E84.43855
G0 F6000 X132.407 Y140.252
;TYPE:WALL-OUTER
G1 F1200 X132.869 Y140.252 E84.48464
G1 X135.522 Y135.657 E85.01407
G1 X129.754 Y135.657 E85.5896
G1 X132.407 Y140.252 E86.11902
G0 F6000 X132.148 Y140.401
G0 X131.283 Y140.69
G0 X104.57 Y140.6
;TYPE:WALL-INNER
G1 F1200 X105.66 Y140.455 E86.18378
G1 X106.258 Y140.208 E86.23816
G1 X106.676 Y140.035 E86.2833
G1 X107.547 Y139.366 E86.39289
G1 X108.216 Y138.495 E86.50247
G1 X108.638 Y137.478 E86.61234
G1 X108.78 Y136.389 E86.72192
G1 X108.638 Y135.299 E86.8316
G1 X108.216 Y134.283 E86.94137
G1 X107.547 Y133.411 E87.05104
G1 X106.676 Y132.743 E87.16056
G1 X105.66 Y132.321 E87.27034
G1 X104.57 Y132.179 E87.38002
G1 X103.481 Y132.321 E87.4896
G1 X102.464 Y132.743 E87.59946
G1 X101.593 Y133.411 E87.70899
G1 X100.924 Y134.283 E87.81865
G1 X100.502 Y135.299 E87.92843
G1 X100.36 Y136.389 E88.03811
G1 X100.502 Y137.478 E88.14769
G1 X100.924 Y138.495 E88.25755
G1 X101.593 Y139.366 E88.36714
G1 X102.464 Y140.035 E88.47673
G1 X102.883 Y140.208 E88.52196
G1 X103.481 Y140.455 E88.57633
G1 X104.57 Y140.6 E88.64104
G0 F6000 X104.57 Y139.793
;TYPE:WALL-OUTER
G1 F1200 X105.451 Y139.676 E88.72971
G1 X106.272 Y139.336 E88.81838
G1 X106.976 Y138.795 E88.90697
G1 X107.517 Y138.091 E88.99556
G1 X107.858 Y137.269 E89.08436
G1 X107.973 Y136.389 E89.17291
G1 X107.858 Y135.508 E89.26156
G1 X107.517 Y134.687 E89.35027
G1 X106.976 Y133.982 E89.43894
G1 X106.272 Y133.442 E89.52747
G1 X105.451 Y133.101 E89.61618
G1 X104.57 Y132.986 E89.70483
G1 X103.69 Y133.101 E89.79338
G1 X102.868 Y133.442 E89.88218
G1 X102.164 Y133.982 E89.97071
G1 X101.623 Y134.687 E90.05938
G1 X101.282 Y135.508 E90.14808
G1 X101.167 Y136.389 E90.23674
G1 X101.282 Y137.269 E90.32529
G1 X101.623 Y138.091 E90.41409
G1 X102.164 Y138.795 E90.50268
G1 X102.868 Y139.336 E90.59127
G1 X103.69 Y139.676 E90.68003
G1 X104.57 Y139.793 E90.76861
G0 F6000 X104.57 Y140.673
G1 F3600 E82.76861
G0 F6000 X130.481 Y141.558
G0 X131.74 Y141.704
G0 X132.967 Y142.149
G0 X134.059 Y142.863
G0 X134.867 Y143.713
G0 X138.363 Y149.247
G0 X138.229 Y149.516
G1 F3600 E90.76861
G1 F1200 X137.335 Y148.931 E90.87521
G1 X136.608 Y148.166 E90.98051
G1 X136.07 Y147.244 E91.08703
G1 X135.395 Y145.033 E91.31769
G1 X134.765 Y143.953 E91.44245
G1 X133.905 Y143.048 E91.56702
G1 X132.86 Y142.364 E91.69164
G1 X131.685 Y141.938 E91.81635
G1 X130.467 Y141.797 E91.9387
G1 X40.107 Y141.796 E100.95485
G1 X38.899 Y141.636 E101.07644
G1 X37.79 Y141.177 E101.1962
G1 X36.836 Y140.445 E101.31619
G1 X36.11 Y139.498 E101.43525
G1 X35.649 Y138.386 E101.55536
G1 X35.489 Y137.168 E101.67794
G1 X35.49 Y82.82 E107.1008
G1 X35.649 Y81.614 E107.22218
G1 X36.11 Y80.502 E107.34229
G1 X36.836 Y79.555 E107.46136
G1 X37.79 Y78.823 E107.58134
G1 X38.9 Y78.364 E107.70119
G1 X40.118 Y78.203 E107.82378
G1 X130.315 Y78.202 E116.82368
G1 X131.523 Y78.062 E116.94502
G1 X132.697 Y77.636 E117.06963
G1 X133.743 Y76.952 E117.19434
G1 X134.603 Y76.047 E117.31891
G1 X135.233 Y74.967 E117.44367
G1 X135.909 Y72.755 E117.67446
G1 X136.444 Y71.836 E117.78056
G1 X137.173 Y71.069 E117.88615
G1 X138.067 Y70.484 E117.99275
G1 X139.065 Y70.122 E118.09868
G1 X140.14 Y69.997 E118.20667
G1 X179.894 Y69.998 E122.17334
G1 X181.1 Y70.157 E122.29471
G1 X182.21 Y70.617 E122.41461
G1 X183.164 Y71.349 E122.53459
G1 X183.89 Y72.296 E122.65365
G1 X184.351 Y73.408 E122.77377
G1 X184.511 Y74.626 E122.89634
G1 X184.51 Y145.386 E129.9568
G1 X184.351 Y146.592 E130.07818
G1 X183.89 Y147.704 E130.19829
G1 X183.164 Y148.651 E130.31736
G1 X182.21 Y149.383 E130.43734
G1 X181.1 Y149.843 E130.55723
G1 X179.882 Y150.003 E130.67981
G1 X140.292 Y150.002 E134.63011
G1 X139.227 Y149.878 E134.7371
G1 X138.229 Y149.516 E134.84303
G0 F6000 X138.622 Y148.729
G0 X138.942 Y148.083
